**harm	**harte	**timestamp	**phrase	**leadinstrument	**kern
*M4/4	*M4/4	*	*	*	*
*E:	*E:	*	*	*	*E:
1r;	N	0	.	r	1r;
=1	=1	=1	=1	=1	=1
*>A_intro	*>A_intro	*>A_intro	*>A_intro	*>A_intro	*>A_intro
1I	E:maj	1.068	newline	piano	1E 1g# 1b
=2	=2	=2	=2	=2	=2
1I	E:maj	2.697	.	piano	1E 1g# 1b
=3	=3	=3	=3	=3	=3
1IV	A:maj	4.327	.	piano	1A 1cc# 1ee
=4	=4	=4	=4	=4	=4
2v	B:sus4	5.956	.	piano	2B 2dd 2ff#
2V	B:maj	6.77	.	piano	2B 2dd# 2ff#
=5	=5	=5	=5	=5	=5
1I	E:maj	7.585	newline	piano	1E 1g# 1b
=6	=6	=6	=6	=6	=6
1I	E:maj	9.155	.	piano	1E 1g# 1b
=7	=7	=7	=7	=7	=7
1IV	A:maj	10.724	.	piano	1A 1cc# 1ee
=8	=8	=8	=8	=8	=8
2v	B:sus4	12.294	.	piano	2B 2dd 2ff#
2V	B:maj	13.079	.	piano	2B 2dd# 2ff#
=9	=9	=9	=9	=9	=9
*>B_trans	*>B_trans	*>B_trans	*>B_trans	*>B_trans	*>B_trans
1I	E:maj	13.864	newline	guitar	1E 1g# 1b
=10	=10	=10	=10	=10	=10
1I	E:maj	15.459	.	guitar	1E 1g# 1b
=11	=11	=11	=11	=11	=11
1I	E:maj	17.054	.	guitar	1E 1g# 1b
=12	=12	=12	=12	=12	=12
1I	E:maj	18.649	.	guitar	1E 1g# 1b
=13	=13	=13	=13	=13	=13
*>A_verse	*>A_verse	*>A_verse	*>A_verse	*>A_verse	*>A_verse
1I	E:maj	20.245	newline	voice	1E 1g# 1b
=14	=14	=14	=14	=14	=14
1I	E:maj	21.847	.	voice	1E 1g# 1b
=15	=15	=15	=15	=15	=15
1IV	A:maj	23.45	.	voice	1A 1cc# 1ee
=16	=16	=16	=16	=16	=16
2v	B:sus4	25.053	.	voice	2B 2dd 2ff#
2V	B:maj	25.854	.	voice	2B 2dd# 2ff#
=17	=17	=17	=17	=17	=17
1I	E:maj	26.656	newline	voice	1E 1g# 1b
=18	=18	=18	=18	=18	=18
1I	E:maj	28.231	.	voice	1E 1g# 1b
=19	=19	=19	=19	=19	=19
1IV	A:maj	29.807	.	voice	1A 1cc# 1ee
=20	=20	=20	=20	=20	=20
2v	B:sus4	31.383	.	voice	2B 2dd 2ff#
2V	B:maj	32.17	.	voice	2B 2dd# 2ff#
=21	=21	=21	=21	=21	=21
1I	E:maj	32.958	newline	voice	1E 1g# 1b
=22	=22	=22	=22	=22	=22
1I	E:maj	34.548	.	voice	1E 1g# 1b
=23	=23	=23	=23	=23	=23
1IV	A:maj	36.139	.	voice	1A 1cc# 1ee
=24	=24	=24	=24	=24	=24
2v	B:sus4	37.729	.	voice	2B 2dd 2ff#
2V	B:maj	38.524	.	voice	2B 2dd# 2ff#
=25	=25	=25	=25	=25	=25
1I	E:maj	39.319	newline	voice	1E 1g# 1b
=26	=26	=26	=26	=26	=26
1I	E:maj	40.919	.	voice	1E 1g# 1b
=27	=27	=27	=27	=27	=27
1IV	A:maj	42.519	.	voice	1A 1cc# 1ee
=28	=28	=28	=28	=28	=28
2v	B:sus4	44.118	.	voice	2B 2dd 2ff#
2V	B:maj	44.918	.	voice	2B 2dd# 2ff#
=29	=29	=29	=29	=29	=29
*>D_prechorus	*>D_prechorus	*>D_prechorus	*>D_prechorus	*>D_prechorus	*>D_prechorus
1IV	A:maj	45.718	newline	voice	1A 1cc# 1ee
=30	=30	=30	=30	=30	=30
1IV	A:maj	47.294	.	voice	1A 1cc# 1ee
=31	=31	=31	=31	=31	=31
1I	E:maj	48.869	.	voice	1E 1g# 1b
=32	=32	=32	=32	=32	=32
1Im7	E:7	50.444	.	voice	1E 1g# 1b 1dd#
=33	=33	=33	=33	=33	=33
1IV	A:maj	52.02	newline	voice	1A 1cc# 1ee
=34	=34	=34	=34	=34	=34
1IV	A:maj	53.605	.	voice	1A 1cc# 1ee
=35	=35	=35	=35	=35	=35
1v	B:sus4	55.191	.	voice	1B 1dd 1ff#
=36	=36	=36	=36	=36	=36
1V	B:maj	56.776	.	voice	1B 1dd# 1ff#
=37	=37	=37	=37	=37	=37
1V	B:maj	58.362	.	voice	1B 1dd# 1ff#
=38	=38	=38	=38	=38	=38
*>E_chorus	*>E_chorus	*>E_chorus	*>E_chorus	*>E_chorus	*>E_chorus
1I	E:maj	59.948	newline	voice	1E 1g# 1b
=39	=39	=39	=39	=39	=39
1I	E:maj	61.564	.	voice	1E 1g# 1b
=40	=40	=40	=40	=40	=40
1vi	C#:min	63.181	.	voice	1C# 1e 1g#
=41	=41	=41	=41	=41	=41
1vi	C#:min	64.798	.	voice	1C# 1e 1g#
=42	=42	=42	=42	=42	=42
1IV	A:maj	66.415	newline	voice	1A 1cc# 1ee
=43	=43	=43	=43	=43	=43
1IV	A:maj	68.001	.	voice	1A 1cc# 1ee
=44	=44	=44	=44	=44	=44
1v	B:sus4	69.587	.	voice	1B 1dd 1ff#
=45	=45	=45	=45	=45	=45
1V	B:maj	71.172	.	voice	1B 1dd# 1ff#
=46	=46	=46	=46	=46	=46
1I	E:maj	72.758	newline	voice	1E 1g# 1b
=47	=47	=47	=47	=47	=47
1I	E:maj	74.346	.	voice	1E 1g# 1b
=48	=48	=48	=48	=48	=48
1vi	C#:min	75.934	.	voice	1C# 1e 1g#
=49	=49	=49	=49	=49	=49
1vi	C#:min	77.522	.	voice	1C# 1e 1g#
=50	=50	=50	=50	=50	=50
1IV	A:maj	79.11	newline	voice	1A 1cc# 1ee
=51	=51	=51	=51	=51	=51
1IV	A:maj	80.712	.	voice	1A 1cc# 1ee
=52	=52	=52	=52	=52	=52
1v	B:sus4	82.314	.	voice	1B 1dd 1ff#
=53	=53	=53	=53	=53	=53
1V	B:maj	83.916	.	voice	1B 1dd# 1ff#
=54	=54	=54	=54	=54	=54
*>A_interlude	*>A_interlude	*>A_interlude	*>A_interlude	*>A_interlude	*>A_interlude
1I	E:maj	85.518	newline	piano	1E 1g# 1b
=55	=55	=55	=55	=55	=55
1I	E:maj	87.087	.	piano	1E 1g# 1b
=56	=56	=56	=56	=56	=56
1IV	A:maj	88.657	.	piano	1A 1cc# 1ee
=57	=57	=57	=57	=57	=57
2v	B:sus4	90.227	.	piano	2B 2dd 2ff#
2V	B:maj	91.012	.	piano	2B 2dd# 2ff#
=58	=58	=58	=58	=58	=58
1I	E:maj	91.797	newline	piano	1E 1g# 1b
=59	=59	=59	=59	=59	=59
1I	E:maj	93.384	.	piano	1E 1g# 1b
=60	=60	=60	=60	=60	=60
1IV	A:maj	94.972	.	piano	1A 1cc# 1ee
=61	=61	=61	=61	=61	=61
2v	B:sus4	96.559	.	piano	2B 2dd 2ff#
2V	B:maj	97.353	.	piano	2B 2dd# 2ff#
=62	=62	=62	=62	=62	=62
*>A_verse	*>A_verse	*>A_verse	*>A_verse	*>A_verse	*>A_verse
1I	E:maj	98.146	newline	voice	1E 1g# 1b
=63	=63	=63	=63	=63	=63
1I	E:maj	99.744	.	voice	1E 1g# 1b
=64	=64	=64	=64	=64	=64
1IV	A:maj	101.341	.	voice	1A 1cc# 1ee
=65	=65	=65	=65	=65	=65
2v	B:sus4	102.938	.	voice	2B 2dd 2ff#
2V	B:maj	103.736	.	voice	2B 2dd# 2ff#
=66	=66	=66	=66	=66	=66
1I	E:maj	104.535	newline	voice	1E 1g# 1b
=67	=67	=67	=67	=67	=67
1I	E:maj	106.129	.	voice	1E 1g# 1b
=68	=68	=68	=68	=68	=68
1IV	A:maj	107.723	.	voice	1A 1cc# 1ee
=69	=69	=69	=69	=69	=69
2v	B:sus4	109.317	.	voice	2B 2dd 2ff#
2V	B:maj	110.114	.	voice	2B 2dd# 2ff#
=70	=70	=70	=70	=70	=70
1I	E:maj	110.911	newline	voice	1E 1g# 1b
=71	=71	=71	=71	=71	=71
1I	E:maj	112.511	.	voice	1E 1g# 1b
=72	=72	=72	=72	=72	=72
1IV	A:maj	114.112	.	voice	1A 1cc# 1ee
=73	=73	=73	=73	=73	=73
2v	B:sus4	115.713	.	voice	2B 2dd 2ff#
2V	B:maj	116.513	.	voice	2B 2dd# 2ff#
=74	=74	=74	=74	=74	=74
1I	E:maj	117.314	newline	voice	1E 1g# 1b
=75	=75	=75	=75	=75	=75
1I	E:maj	118.914	.	voice	1E 1g# 1b
=76	=76	=76	=76	=76	=76
1IV	A:maj	120.515	.	voice	1A 1cc# 1ee
=77	=77	=77	=77	=77	=77
2v	B:sus4	122.116	.	voice	2B 2dd 2ff#
2V	B:maj	122.916	.	voice	2B 2dd# 2ff#
=78	=78	=78	=78	=78	=78
*>D_prechorus	*>D_prechorus	*>D_prechorus	*>D_prechorus	*>D_prechorus	*>D_prechorus
1IV	A:maj	123.717	newline	voice	1A 1cc# 1ee
=79	=79	=79	=79	=79	=79
1IV	A:maj	125.324	.	voice	1A 1cc# 1ee
=80	=80	=80	=80	=80	=80
1I	E:maj	126.931	.	voice	1E 1g# 1b
=81	=81	=81	=81	=81	=81
1Im7	E:7	128.538	.	voice	1E 1g# 1b 1dd#
=82	=82	=82	=82	=82	=82
1IV	A:maj	130.145	newline	voice	1A 1cc# 1ee
=83	=83	=83	=83	=83	=83
1IV	A:maj	131.745	.	voice	1A 1cc# 1ee
=84	=84	=84	=84	=84	=84
1v	B:sus4	133.345	.	voice	1B 1dd 1ff#
=85	=85	=85	=85	=85	=85
1V	B:maj	134.946	.	voice	1B 1dd# 1ff#
=86	=86	=86	=86	=86	=86
1V	B:maj	136.546	.	voice	1B 1dd# 1ff#
=87	=87	=87	=87	=87	=87
*>E_chorus	*>E_chorus	*>E_chorus	*>E_chorus	*>E_chorus	*>E_chorus
1I	E:maj	138.146	newline	voice	1E 1g# 1b
=88	=88	=88	=88	=88	=88
1I	E:maj	139.748	.	voice	1E 1g# 1b
=89	=89	=89	=89	=89	=89
1vi	C#:min	141.35	.	voice	1C# 1e 1g#
=90	=90	=90	=90	=90	=90
1vi	C#:min	142.952	.	voice	1C# 1e 1g#
=91	=91	=91	=91	=91	=91
1IV	A:maj	144.554	newline	voice	1A 1cc# 1ee
=92	=92	=92	=92	=92	=92
1IV	A:maj	146.152	.	voice	1A 1cc# 1ee
=93	=93	=93	=93	=93	=93
1v	B:sus4	147.75	.	voice	1B 1dd 1ff#
=94	=94	=94	=94	=94	=94
1V	B:maj	149.348	.	voice	1B 1dd# 1ff#
=95	=95	=95	=95	=95	=95
1I	E:maj	150.947	newline	voice	1E 1g# 1b
=96	=96	=96	=96	=96	=96
1I	E:maj	152.521	.	voice	1E 1g# 1b
=97	=97	=97	=97	=97	=97
1vi	C#:min	154.096	.	voice	1C# 1e 1g#
=98	=98	=98	=98	=98	=98
1vi	C#:min	155.671	.	voice	1C# 1e 1g#
=99	=99	=99	=99	=99	=99
1IV	A:maj	157.246	newline	voice	1A 1cc# 1ee
=100	=100	=100	=100	=100	=100
1IV	A:maj	158.848	.	voice	1A 1cc# 1ee
=101	=101	=101	=101	=101	=101
1v	B:sus4	160.45	.	voice	1B 1dd 1ff#
=102	=102	=102	=102	=102	=102
1V	B:maj	162.052	.	voice	1B 1dd# 1ff#
=103	=103	=103	=103	=103	=103
*>E_chorus	*>E_chorus	*>E_chorus	*>E_chorus	*>E_chorus	*>E_chorus
1I	E:maj	163.654	newline	voice	1E 1g# 1b
=104	=104	=104	=104	=104	=104
1I	E:maj	165.235	.	voice	1E 1g# 1b
=105	=105	=105	=105	=105	=105
1vi	C#:min	166.815	.	voice	1C# 1e 1g#
=106	=106	=106	=106	=106	=106
1vi	C#:min	168.396	.	voice	1C# 1e 1g#
=107	=107	=107	=107	=107	=107
1IV	A:maj	169.976	newline	voice	1A 1cc# 1ee
=108	=108	=108	=108	=108	=108
1IV	A:maj	171.558	.	voice	1A 1cc# 1ee
=109	=109	=109	=109	=109	=109
1v	B:sus4	173.14	.	voice	1B 1dd 1ff#
=110	=110	=110	=110	=110	=110
1V	B:maj	174.722	.	voice	1B 1dd# 1ff#
=111	=111	=111	=111	=111	=111
1I	E:maj	176.303	newline	voice	1E 1g# 1b
=112	=112	=112	=112	=112	=112
1I	E:maj	177.888	.	voice	1E 1g# 1b
=113	=113	=113	=113	=113	=113
1vi	C#:min	179.473	.	voice	1C# 1e 1g#
=114	=114	=114	=114	=114	=114
1vi	C#:min	181.058	.	voice	1C# 1e 1g#
=115	=115	=115	=115	=115	=115
1IV	A:maj	182.643	newline	voice	1A 1cc# 1ee
=116	=116	=116	=116	=116	=116
1IV	A:maj	184.224	.	voice	1A 1cc# 1ee
=117	=117	=117	=117	=117	=117
1v	B:sus4	185.805	.	voice	1B 1dd 1ff#
=118	=118	=118	=118	=118	=118
1V	B:maj	187.385	.	voice	1B 1dd# 1ff#
=119	=119	=119	=119	=119	=119
*>F_bridge	*>F_bridge	*>F_bridge	*>F_bridge	*>F_bridge	*>F_bridge
1-VI	C:maj	188.966	newline	piano	1C 1e 1g
=120	=120	=120	=120	=120	=120
1-VI	C:maj	190.555	.	piano	1C 1e 1g
=121	=121	=121	=121	=121	=121
1iv	A:min	192.143	.	piano	1A 1cc 1ee
=122	=122	=122	=122	=122	=122
1iv	A:min	193.731	.	piano	1A 1cc 1ee
=123	=123	=123	=123	=123	=123
*>A_interlude	*>A_interlude	*>A_interlude	*>A_interlude	*>A_interlude	*>A_interlude
1I	E:maj	195.32	newline	piano	1E 1g# 1b
=124	=124	=124	=124	=124	=124
1I	E:maj	196.882	.	piano	1E 1g# 1b
=125	=125	=125	=125	=125	=125
1IV	A:maj	198.443	.	piano	1A 1cc# 1ee
=126	=126	=126	=126	=126	=126
2v	B:sus4	200.005	.	piano	2B 2dd 2ff#
2V	B:maj	200.786	.	piano	2B 2dd# 2ff#
=127	=127	=127	=127	=127	=127
1I	E:maj	201.567	newline	piano	1E 1g# 1b
=128	=128	=128	=128	=128	=128
1I	E:maj	203.133	.	piano	1E 1g# 1b
=129	=129	=129	=129	=129	=129
1IV	A:maj	204.699	.	piano	1A 1cc# 1ee
=130	=130	=130	=130	=130	=130
2v	B:sus4	206.265	.	piano	2B 2dd 2ff#
2V	B:maj	207.048	.	piano	2B 2dd# 2ff#
=131	=131	=131	=131	=131	=131
1I	E:maj	207.831	newline	piano	1E 1g# 1b
=132	=132	=132	=132	=132	=132
1I	E:maj	209.396	.	piano	1E 1g# 1b
=133	=133	=133	=133	=133	=133
1IV	A:maj	210.96	.	piano	1A 1cc# 1ee
=134	=134	=134	=134	=134	=134
2v	B:sus4	212.525	.	piano	2B 2dd 2ff#
2V	B:maj	213.307	.	piano	2B 2dd# 2ff#
=135	=135	=135	=135	=135	=135
1I	E:maj	214.089	newline	piano	1E 1g# 1b
=136	=136	=136	=136	=136	=136
1I	E:maj	215.675	.	piano	1E 1g# 1b
=137	=137	=137	=137	=137	=137
1IV	A:maj	217.262	.	piano	1A 1cc# 1ee
=138	=138	=138	=138	=138	=138
2v	B:sus4	218.848	.	piano	2B 2dd 2ff#
2V	B:maj	219.641	.	piano	2B 2dd# 2ff#
=139	=139	=139	=139	=139	=139
1I	E:maj	220.434	newline	piano	1E 1g# 1b
=140	=140	=140	=140	=140	=140
1I	E:maj	222.001	.	piano	1E 1g# 1b
=141	=141	=141	=141	=141	=141
1IV	A:maj	223.568	.	piano	1A 1cc# 1ee
=142	=142	=142	=142	=142	=142
2v	B:sus4	225.136	.	piano	2B 2dd 2ff#
2V	B:maj	225.919	.	piano	2B 2dd# 2ff#
=143	=143	=143	=143	=143	=143
*>_fadeout	*>_fadeout	*>_fadeout	*>_fadeout	*>_fadeout	*>_fadeout
1I	E:maj	226.703	newline	piano	1E 1g# 1b
=144	=144	=144	=144	=144	=144
1I	E:maj	228.272	.	piano	1E 1g# 1b
=145	=145	=145	=145	=145	=145
1IV	A:maj	229.84	.	piano	1A 1cc# 1ee
=146	=146	=146	=146	=146	=146
2v	B:sus4	231.409	.	piano	2B 2dd 2ff#
2V	B:maj	232.193	.	piano	2B 2dd# 2ff#
=147	=147	=147	=147	=147	=147
1I	E:maj	232.978	newline	piano	1E 1g# 1b
=148	=148	=148	=148	=148	=148
1I	E:maj	234.566	.	piano	1E 1g# 1b
=149	=149	=149	=149	=149	=149
1IV	A:maj	236.155	.	piano	1A 1cc# 1ee
=150	=150	=150	=150	=150	=150
2v	B:sus4	237.743	.	piano	2B 2dd 2ff#
2V	B:maj	238.537	.	piano	2B 2dd# 2ff#
=151	=151	=151	=151	=151	=151
1I	E:maj	239.332	newline	piano	1E 1g# 1b
=152	=152	=152	=152	=152	=152
1I	E:maj	240.908	.	piano	1E 1g# 1b
=153	=153	=153	=153	=153	=153
1IV	A:maj	242.485	.	piano	1A 1cc# 1ee
=154	=154	=154	=154	=154	=154
2v	B:sus4	244.061	.	piano	2B 2dd 2ff#
2V	B:maj	244.849	.	piano	2B 2dd# 2ff#
=155	=155	=155	=155	=155	=155
1I	E:maj	245.637	newline	piano	1E 1g# 1b
=156	=156	=156	=156	=156	=156
1I	E:maj	247.125	.	piano	1E 1g# 1b
=157	=157	=157	=157	=157	=157
1IV	A:maj	248.612	.	piano	1A 1cc# 1ee
=158	=158	=158	=158	=158	=158
2v	B:sus4	250.1	.	piano	2B 2dd 2ff#
2V	B:maj	250.843	.	piano	2B 2dd# 2ff#
=159	=159	=159	=159	=159	=159
1I	E:maj	251.587	.	piano	1E 1g# 1b
1r;	N	253.074	.	r	1r;
1r;	N	258.142	.	r	1r;
*-	*-	*-	*-	*-	*-
!!!OTL: American Storm
!!!COC: Bob Seger
!!!BillboardChartDate: 1986/05/24
!!!BillboardPeak: 13
!!!BillboardWeeksOnChart: 14
!!!SampleTargetRank: 37
!!!SampleActualRank: 36
!!!SampleID#: 1277
!!!RDF**harmony: **recip + pitch class of root + harmonic quality
!!!RDF**harte: Chris Harte's syntax, used by MIREX
!!!RDF**phrase: newline = linebreak in original McGill transcription
!!!RDF**timestamp: McGill audio timestamp in seconds
!!!RDF**leadinstrument: original McGill primary instrumentation annotation
!!!RDT: 2017/01/12/
!!!ENC: Nathaniel Condit-Schultz
!!!EST: Awating manual error checking and editing.
